X:1
T:Freeland's Jig No. 2
C:Ívar Bærentsen
R:Jig
M:6/8
L:1/8
K:D
Z: ABC transcription by Paul Dennant (Chords added by Verge Roller)
r: 32
|: A | "D" d2 B AFD | "A" EFE "D" D2 A, | "A" A,DA, A,B,D | "A" FEE EFA |
"D" d2 B A2 G | "F#m" FAd "D" f3 | "F#m" faf "A" ede | "D" fdd d2 :|
K:Dm
|: f | "Dm" a2a aba | "C" e3efe | "Dm" f2f fgf | "Am" e3 A3 |
"Bb" B2 B "Am" ABA | "F" Adf "Am" a3 | "Dm" agf "Am" efe | "Dm" d3 d2 :|
